X:116
T:Trip to Glascow. JJo8.116
B:J.Johnson Choice Collection Vol 8 1758
Z:vmp.Simon Wilson 2013 www.village-music-project.org.uk
M:C|
L:1/4
Q:1/2=100
K:G
|:d|BdBg|dB2d|BdBg|cA2c|BdBg|AcAf|gABc|B!fermata!G2:|
|d|BG2B|AD2d|BG2B|Ad2c|Bgdc|Bgdc|BdgB|!D.C.!BA2|]
